X: 20
T:Cliffs of Moher, The
M:6/8
L:1/8
R:Double Jig
K:ADor
~a3 bag|eaf ged|c2A BAG|EFG ABd|!
eaa bag|eaf ged|c2A BAG|EFG A3:|!
efe dBA|efe dBA|GAB dBA|GAB dBd|!
efe dBA|efe dBA|GAB dBG|EFG A3||!
efe dBA|e/2f/2ge dBA|GAB dBA|GAB dBd|!
efe dee|cee Bee|EFG BAG|EDB, A,3|]!
